X:1283
T:O Lord, turn not away thy face
C:Thomas Mulliner
O:England
B:"The Mulliner Book" no. 109 (f. 105-106)
R:Hymn
Z:Transcribed by Frank Nordberg - http://www.musicaviva.com
F:http://abc.musicaviva.com/tunes/mulliner-thomas/mulliner-o-lord/mulliner-o-lord-pno2.abc
V:1 Program 1 74 up %Recorder
V:2 Program 2 74 merge down %Recorder
V:3 Program 3 74 bass %Recorder
M:none
L:1/2
Q:1/2=60
K:Gdor
V:1
d2d3eag|
V:2
G2B3GcB|
V:3
L:1/8
z2 G,A, B,A,B,C DCDC B,A,G,A, B,G,A,B, CB,A,G, F,G,A,F, G,F,E,D,|
%
V:1
L:1/2
c'3c'_b2baba|
V:2
_e3_ed2dd2c|
V:3
L:1/8
C,D,E,F, G,A,G,F, E,D,C,D, E,D,E,F, G,A,B,C DCB,C DCDE FCDE GFED FEDC|
%
V:1
L:1/2
gg^f2e=f2efd|
V:2
BBA2AA2GAF|
V:3
L:1/8
_EDCB, CB,A,G, DCDE DCB,A, CB,A,G, F,G,A,G, F,G,A,B, CB,A,G, F,G,A,F, B,A,G,F,|
%
V:1
L:1/2
efg2fg2eff|
V:2
GAB2AB2GAA|
V:3
L:1/8
CB,A,G, F,2 DC B,A,G,A, B,A,B,C DCDC B,A,G,A, B,G,A,B, CB,A,G, F,E,D,E, F,G,A,=B,|
%
V:1
L:1/2
e2 z2 d2d_eddg|
V:2
G2 z2 G2G3FB|
V:3
L:1/8
C2 _B,A, G,F,E,D, C,D,E,D, C,D,E,F, G,2 G,A, B,A,G,A, B,G,A,B, CB,CB, G,A,B,G, B,A,B,A, G,A,B,C|
%
V:1
L:1/2
^fgab2bc'2_ba|
V:2
ABcd2d_e2dd|
V:3
L:1/8
DCDC B,A, G,2 FEFE DCB,A, G,2 GF GFED CDED CDEF GFGF DEFD|
%
V:1
L:1/2
ab2aa2abg=f|
V:2
cd2df2cdBA|
V:3
L:1/8
FEFE DCB,A, G,A,B,C DEFE DCB,A, B,A,G,F, FEDC B,A,G,A, B,A,B,C DCA,B,|
%
V:1
L:1/2
ea2fb2afeedc3/2=B//A//=B4|]
V:2
Gc2Ad2cAAG2G2G4|]
V:3
L:1/8
CB,A,G, F,G,A,B, CA,B,C DCDC B,A,G,A, B,CDE FEDC DCDC A,B,CB, C=B,C_B, G,A,B,G, [A,2C2][B,2D2][C4E4][G,16D16]|]
W:
W:
W:  From Musica Viva - http://www.musicaviva.com
W:  the Internet center for free sheet music downloads.
